ukui-icon-theme-default/scalable/actions/node-break.svg

<?xml version="1.0" encoding="iso-8859-1"?>
<!-- Generator: Adobe Illustrator 24.0.0, SVG Export Plug-In . SVG Version: 6.00 Build 0)  -->
<svg version="1.1" id="&#x56FE;&#x5C42;_1" xmlns="http://www.w3.org/2000/svg" xmlns:xlink="http://www.w3.org/1999/xlink" x="0px"
	 y="0px" viewBox="0 0 16 16" style="enable-background:new 0 0 16 16;" xml:space="preserve">
<title>16</title>
<g id="n">
	<g id="_16">
		<path style="fill:#808080;" d="M10,2v3H6V2H10 M10,1H6C5.448,1,5,1.448,5,2v3c0,0.552,0.448,1,1,1h4c0.552,0,1-0.448,1-1V2
			C11,1.448,10.552,1,10,1z"/>
		<path style="fill:#808080;" d="M6,12v2H4v-2H6 M6,11H4c-0.552,0-1,0.448-1,1v2c0,0.552,0.448,1,1,1h2c0.552,0,1-0.448,1-1v-2
			C7,11.448,6.552,11,6,11z"/>
		<path style="fill:#808080;" d="M12,12v2h-2v-2H12 M12,11h-2c-0.552,0-1,0.448-1,1v2c0,0.552,0.448,1,1,1h2c0.552,0,1-0.448,1-1v-2
			C13,11.448,12.552,11,12,11z"/>
		<line style="fill:none;stroke:#808080;stroke-linecap:round;stroke-miterlimit:10;" x1="1.5" y1="12.5" x2="3.5" y2="12.5"/>
		<line style="fill:none;stroke:#808080;stroke-linecap:round;stroke-miterlimit:10;" x1="12.5" y1="12.5" x2="14.5" y2="12.5"/>
		<line style="fill:none;stroke:#808080;stroke-linecap:round;stroke-miterlimit:10;" x1="10.5" y1="3.5" x2="14.5" y2="3.5"/>
		<path style="fill:#61A232;" d="M6.18,8.82l1.44,1.72c0.171,0.21,0.479,0.241,0.689,0.071c0.026-0.021,0.05-0.045,0.071-0.071
			l1.44-1.72c0.177-0.212,0.148-0.527-0.064-0.704C9.664,8.04,9.549,7.999,9.43,8H6.57C6.294,7.997,6.067,8.218,6.064,8.494
			C6.063,8.613,6.104,8.729,6.18,8.82z"/>
		<line style="fill:none;stroke:#61A232;stroke-width:2;stroke-miterlimit:10;" x1="8" y1="6" x2="8" y2="8"/>
	</g>
</g>
</svg>

<svg xmlns="http://www.w3.org/2000/svg" viewBox="0 0 16 16"><defs><style>.cls-1{fill:gray;}.cls-2,.cls-4{fill:none;stroke-miterlimit:10;}.cls-2{stroke:gray;stroke-linecap:round;}.cls-3{fill:#61a232;}.cls-4{stroke:#61a232;stroke-width:2px;}</style></defs><title>16</title><g id="n"><g id="_16" data-name="16"><path class="cls-1" d="M10,2V5H6V2h4m0-1H6A1,1,0,0,0,5,2V5A1,1,0,0,0,6,6h4a1,1,0,0,0,1-1V2a1,1,0,0,0-1-1Z"/><path class="cls-1" d="M6,12v2H4V12H6m0-1H4a1,1,0,0,0-1,1v2a1,1,0,0,0,1,1H6a1,1,0,0,0,1-1V12a1,1,0,0,0-1-1Z"/><path class="cls-1" d="M12,12v2H10V12h2m0-1H10a1,1,0,0,0-1,1v2a1,1,0,0,0,1,1h2a1,1,0,0,0,1-1V12a1,1,0,0,0-1-1Z"/><line class="cls-2" x1="1.5" y1="12.5" x2="3.5" y2="12.5"/><line class="cls-2" x1="12.5" y1="12.5" x2="14.5" y2="12.5"/><line class="cls-2" x1="10.5" y1="3.5" x2="14.5" y2="3.5"/><path class="cls-3" d="M6.18,8.82l1.44,1.72a.49.49,0,0,0,.76,0L9.82,8.82A.5.5,0,0,0,9.43,8H6.57A.5.5,0,0,0,6.18,8.82Z"/><line class="cls-4" x1="8" y1="6" x2="8" y2="8"/></g></g></svg>
